!!!OTL: Het reden twee ghespeeln goet
!!!ARE: Europa, Mitteleuropa, Deutschland
!!!SCT: L0070A
!!!YEM: Copyright 1995, estate of Helmut Schaffrath.
**kern
*ICvox
*Ivox
*M4/4
*k[f#c#]
*D:
{4a
=1
2a
2ccn
=2
2b
2dd
=3
2ccn
2b
=4
2a
4r}
{4a
=5
2dd
2ccn
=6
2ccn
2a
=7
4a
4g
2fn
=8
2e
4r}
{4d
=9
2.fn
4g
=10
2.a
4a
=11
2b-
4g
4b-
=12
4a
4g
2fn
=13
2e
4r}
{4e
=14
2fn
2d
=15
2e
2g
=16
4g
4fn
2e
=17
2d
4r}
==
!!!AGN: Lied
!! Hs. des 15. Jh.
!!!ONB: ESAC (Essen Associative Code) Database: ERK5
!!!AMT: simple quadruple
!!!AIN: vox
!!!EED: Helmut Schaffrath
!!!EEV: 1.0
*-
